public/img/navigation-menu/User_ICON.svg

<?xml version="1.0" encoding="UTF-8"?>
<svg width="35px" height="40px" viewBox="0 0 35 40" version="1.1" xmlns="http://www.w3.org/2000/svg" xmlns:xlink="http://www.w3.org/1999/xlink">
    <!-- Generator: Sketch 42 (36781) - http://www.bohemiancoding.com/sketch -->
    <title>User_ICON</title>
    <desc>Created with Sketch.</desc>
    <defs></defs>
    <g id="Page-1" stroke="none" stroke-width="1" fill="none" fill-rule="evenodd">
        <g id="Home" transform="translate(-947.000000, -20.000000)">
            <g id="Menu">
                <g id="User_ICON" transform="translate(947.000000, 20.000000)">
                    <polygon id="Page-1" fill="#9B9B9B" points="17.3561937 0.000150118722 0 9.79789873 0 29.3928956 17.3572173 39.1911446 34.7139227 29.3928956 34.7139227 9.79789873 17.3577291 0.000150118722"></polygon>
                    <path d="M27.1836585,28.1128061 C26.634108,28.8818007 25.7482982,29.3108085 24.8170264,29.3108085 L9.85138753,29.3108085 C8.90449435,29.3108085 8.01908513,28.852321 7.46913405,28.1128061 C6.93480431,27.3587454 6.7972164,26.3826168 7.10263352,25.5247951 L7.74390932,23.8242795 L7.7591301,23.7354524 L7.85085537,23.6320793 C8.70622356,22.0793503 10.1568046,20.8962817 11.9280236,20.3933806 L13.4092466,19.9645667 L12.3403868,18.3082707 C11.5769442,17.1546819 11.2867478,15.7796071 11.516061,14.4188843 L11.6532484,13.6351498 C11.9280236,12.1859878 12.7375292,10.9140921 13.9591976,10.0859441 C14.9215119,9.40558269 16.0668761,9.05085606 17.2729232,9.05085606 C18.5100128,9.05085606 19.7316812,9.46493007 20.7394575,10.1895111 C21.7628552,10.9732455 22.5413184,12.0973546 22.8164942,13.3541226 L23.0299858,14.241424 C23.3660447,15.6463664 23.0758484,17.2140293 22.2665431,18.4265776 L21.2894086,19.9348931 L22.7706316,20.3637069 C24.5112087,20.8962817 26.0078527,22.0793503 26.8477998,23.6320793 L26.8936624,23.7354524 L26.924104,23.8242795 L27.5505596,25.5247951 C27.8711975,26.3826168 27.7336096,27.3587454 27.1836585,28.1128061" id="Fill-1" fill="#FFFFFF"></path>
                </g>
            </g>
        </g>
    </g>
</svg>

<svg width="35" height="40" viewBox="0 0 35 40" xmlns="http://www.w3.org/2000/svg"><title>User_ICON</title><g fill="none" fill-rule="evenodd"><path fill="#9B9B9B" d="M17.356 0L0 9.798v19.595l17.357 9.798 17.357-9.798V9.798L17.358 0z"/><path d="M27.184 28.113a2.893 2.893 0 0 1-2.367 1.198H9.851a2.982 2.982 0 0 1-2.382-1.198 2.85 2.85 0 0 1-.366-2.588l.64-1.7.016-.09.092-.103a6.754 6.754 0 0 1 4.077-3.239l1.481-.428-1.069-1.657a5.386 5.386 0 0 1-.824-3.89l.137-.783c.275-1.449 1.085-2.72 2.306-3.55a5.699 5.699 0 0 1 3.314-1.034c1.237 0 2.459.414 3.466 1.139 1.024.783 1.802 1.907 2.077 3.164l.214.887c.336 1.405.046 2.973-.763 4.186l-.978 1.508 1.482.429c1.74.532 3.237 1.715 4.077 3.268l.046.103.03.09.627 1.7c.32.858.183 1.834-.367 2.588" fill="#FFF"/></g></svg>
